svg/keyboard_f7.svg

<svg xmlns="http://www.w3.org/2000/svg" viewBox="0 0 24 24"><path d="M5 7h6v2H7v2h3v2H7v4H5zm10 10h-2l4-8h-4V7h6v2z"/></svg>

<?xml version="1.0" encoding="UTF-8"?><!DOCTYPE svg PUBLIC "-//W3C//DTD SVG 1.1//EN" "http://www.w3.org/Graphics/SVG/1.1/DTD/svg11.dtd"><svg xmlns="http://www.w3.org/2000/svg" xmlns:xlink="http://www.w3.org/1999/xlink" version="1.1" id="mdi-keyboard-f7" width="24" height="24" viewBox="0 0 24 24"><path d="M5 7H11V9H7V11H10V13H7V17H5V7M15 17H13L17 9H13V7H19V9L15 17Z" /></svg>
